X:2169
T:Brighton Races
R:Reel
O:England
M:2/4
A:Lancashire
B:Winder
K:G
B2d2-d2ef | gfed g2d2 | g2d2 e2d2 | f4A4|\
B2d2-d2ef | gfed g2B2 | c2e2 d2c2 | B4 G4 :|*
|:Bcd2 G2B2 | c2e2 A2c2 | Bcd2 G2B2 | A4 D4 |\
Bcd2 G2B2 | c2e2 A2f2 | g2d2 e2c2 | B4 G4 :|**


